X:15004
T:Old Joe Clark
R:Reel
C:Trad.
O:USA, South
M:4/4
L:1/8
Q:1/4=200
K:D
"A"e2 f2 g2 f2|e2 d2 c4|e2 f2 g2 f2|"E"e4 e2 z2|"A"e2 f2 g2 f2|e2 d2 c4|A2 c2 "G"B2 G2|"A"A4 A2 z2:|
|:"A"A3 A A4|e2 d2 c4|A3 A A2 A2|"G"G4 z4|"A"A3 A A4|e2 d2 c4|A2 c2 "G"B2 G2|"A"A4 A2 z2:|

